X:1
T:Dark Eyes
T:Dark Eyes
T:(Les Yeux Noirs)
T:-Traditional
T:-Swing (Orig. Waltz)
C:Traditional Russian
Z:Public Domain
L:1/8
M:4/4
K:F
V:1 treble 
%%MIDI program 0
%%MIDI control 7 100
%%MIDI control 10 64
V:1
 z2 (3ABA ^G2 A2 |:"A7" B3 A- A4 | z2 z A ^G2 A2 |"Dm" B3 A- A4 | z4 A2 d2 |"A7" d3 ^c- c4 | %6
 z e3 f2 ^c2 |"Bb" e3 d- d4 | z4 f2 g2 |"Gm6" f3 e- e2 B2- | B4 e2 f2 |"Dm" e3 d- d2 A2- | %12
 A3 A ^G2 A2 |"A7" B4 A4 | e4 f4 |"Dm" d8- | d8 |] %17

